symbolic/64x64/apps/flare.svg

<svg xmlns="http://www.w3.org/2000/svg" width="64" height="64" version="1.1">
 <g transform="translate(0,-268.3)">
  <path style="opacity:0.2;fill-rule:evenodd" d="m 30.466369,271.30002 c 0,0 3.676137,9.76698 2.797267,13.25454 -1.114777,4.42372 -4.036903,8.10572 -7.628248,8.8429 -0.943432,0.1936 -2.821004,-0.62168 -4.207308,-1.503 -2.229226,-1.29818 -2.798824,-3.81698 -3.406033,-6.197 0,0 -0.74445,4.05126 -0.401894,7.18816 0.342554,3.1369 2.066851,7.73309 1.957485,10.14255 -0.11834,2.60544 -1.19014,5.4617 -1.19014,5.4617 0,0 -1.692904,-3.04222 -2.765748,-5.0726 -1.07286,-2.0304 -3.908221,-4.76969 -3.908221,-4.76969 0,0 1.895035,3.35879 1.949171,6.49839 0.05416,3.13958 -5.4275038,9.779 0.330367,18.41006 5.820391,8.7248 14.533232,7.7076 14.533232,7.7076 l 2.11965,-0.77938 -8.134171,-3.98528 10.495696,-5.1423 -10.495696,-5.1423 10.495696,-5.1423 10.495709,5.1423 9.138647,-4.47942 -0.254206,-1.45028 -8.884441,-4.3549 7.736477,-3.78844 -0.31158,-2.54703 -1.27917,-9.40478 c 0,0 -1.471892,3.13122 -3.102226,4.23096 -1.072979,0.72378 -2.915965,0.98264 -2.915965,0.98264 0,0 -1.44702,-7.7175 -2.970166,-11.73286 -2.719425,-7.16914 -10.194184,-12.37024 -10.194184,-12.37024 z m 13.036814,44.91435 -10.495709,5.1423 9.634739,4.72046 3.804691,-1.39806 4.259776,-4.93338 z"/>
  <path style="fill:#ff9231;fill-rule:evenodd" d="m 30.466369,270.3 c 0,0 3.676137,9.76698 2.797267,13.25454 -1.114777,4.42372 -4.036903,8.10572 -7.628248,8.8429 -0.943432,0.1936 -2.821004,-0.62168 -4.207308,-1.503 -2.229226,-1.29818 -2.798824,-3.81698 -3.406033,-6.197 0,0 -0.74445,4.05126 -0.401894,7.18816 0.342554,3.1369 2.066851,7.7331 1.957485,10.14255 -0.11834,2.60544 -1.19014,5.4617 -1.19014,5.4617 0,0 -1.692904,-3.04222 -2.765748,-5.0726 -1.07286,-2.03039 -3.908221,-4.76969 -3.908221,-4.76969 0,0 1.895035,3.3588 1.949171,6.49839 0.05416,3.13958 -5.4275038,9.779 0.330367,18.41006 5.820391,8.7248 14.533232,7.7076 14.533232,7.7076 l 2.11965,-0.77938 -8.134171,-3.98528 10.495696,-5.1423 -10.495696,-5.1423 10.495696,-5.1423 10.495709,5.1423 9.138647,-4.47942 -0.254206,-1.45028 -8.884441,-4.3549 7.736477,-3.78844 -0.31158,-2.54703 -1.27917,-9.40478 c 0,0 -1.471892,3.13122 -3.102226,4.23096 -1.072979,0.72378 -2.915965,0.98264 -2.915965,0.98264 0,0 -1.44702,-7.7175 -2.970166,-11.73286 C 37.941128,275.5011 30.466369,270.3 30.466369,270.3 Z m 13.036814,44.91435 -10.495709,5.1423 9.634739,4.72046 3.804691,-1.39806 4.259776,-4.93338 z"/>
  <path style="fill:#ffffff;fill-rule:evenodd;opacity:0.2" transform="translate(0,268.3)" d="M 30.466797 2 C 30.466797 2 30.691163 2.6156578 30.953125 3.3710938 C 32.192562 4.2813821 38.21379 8.9218102 40.660156 15.371094 C 42.183302 19.386454 43.630859 27.103516 43.630859 27.103516 C 43.630859 27.103516 45.473896 26.844874 46.546875 26.121094 C 48.177209 25.021354 49.648438 21.888672 49.648438 21.888672 L 50.927734 31.294922 L 51.125 32.898438 L 51.240234 32.841797 L 50.927734 30.294922 L 49.648438 20.888672 C 49.648438 20.888672 48.177209 24.021354 46.546875 25.121094 C 45.473896 25.844874 43.630859 26.103516 43.630859 26.103516 C 43.630859 26.103516 42.183302 18.386454 40.660156 14.371094 C 37.940731 7.2019538 30.466797 2 30.466797 2 z M 33.378906 14.429688 C 33.359198 14.72979 33.325182 15.00982 33.263672 15.253906 C 32.148895 19.677626 29.226111 23.360476 25.634766 24.097656 C 24.691334 24.291256 22.814038 23.47507 21.427734 22.59375 C 19.198508 21.29557 18.628693 18.776504 18.021484 16.396484 C 18.021484 16.396484 17.488686 19.331267 17.539062 22.138672 C 17.603923 19.675875 18.021484 17.396484 18.021484 17.396484 C 18.628693 19.776504 19.198508 22.29557 21.427734 23.59375 C 22.814038 24.47507 24.691334 25.291256 25.634766 25.097656 C 29.226111 24.360476 32.148895 20.677626 33.263672 16.253906 C 33.388255 15.759531 33.413935 15.130715 33.378906 14.429688 z M 11.712891 29.347656 C 11.712891 29.347656 12.143232 30.133993 12.595703 31.257812 C 13.519071 32.227963 14.920256 33.790851 15.621094 35.117188 C 16.693938 37.147568 18.386719 40.189453 18.386719 40.189453 C 18.386719 40.189453 19.459785 37.333956 19.578125 34.728516 C 19.587577 34.520273 19.566647 34.275667 19.550781 34.037109 C 19.368148 36.55456 18.386719 39.189453 18.386719 39.189453 C 18.386719 39.189453 16.693938 36.147568 15.621094 34.117188 C 14.548234 32.086797 11.712891 29.347656 11.712891 29.347656 z M 13.621094 36.357422 C 13.33225 38.524115 11.261737 42.008563 11.375 46.451172 C 11.574986 42.130706 13.695918 38.805518 13.662109 36.845703 C 13.659309 36.683272 13.633232 36.520531 13.621094 36.357422 z M 44.525391 37.128906 L 43.503906 37.628906 L 52.386719 41.984375 L 52.480469 42.515625 L 52.642578 42.435547 L 52.386719 40.984375 L 44.525391 37.128906 z M 23.533203 47.414062 L 22.511719 47.914062 L 31.986328 52.556641 L 33.007812 52.056641 L 23.533203 47.414062 z M 33.007812 52.056641 L 34.027344 52.556641 L 43.503906 47.914062 L 42.482422 47.414062 L 33.007812 52.056641 z M 43.503906 47.914062 L 50.099609 51.148438 L 50.707031 50.445312 L 44.523438 47.414062 L 43.503906 47.914062 z M 23.533203 57.699219 L 22.511719 58.199219 L 29.480469 61.611328 L 30.646484 61.183594 L 23.533203 57.699219 z"/>
 </g>
</svg>

<svg xmlns="http://www.w3.org/2000/svg" width="64" height="64"><path style="opacity:.2;fill-rule:evenodd" d="M30.466 271.3s3.677 9.767 2.798 13.255c-1.115 4.423-4.037 8.105-7.629 8.842-.943.194-2.82-.621-4.207-1.503-2.23-1.298-2.799-3.817-3.406-6.197 0 0-.744 4.052-.402 7.189.343 3.137 2.067 7.733 1.958 10.142-.119 2.606-1.19 5.462-1.19 5.462s-1.693-3.042-2.766-5.073c-1.073-2.03-3.908-4.77-3.908-4.77s1.895 3.36 1.949 6.499c.054 3.14-5.428 9.779.33 18.41 5.82 8.725 14.533 7.708 14.533 7.708l2.12-.78-8.134-3.985 10.495-5.142-10.495-5.143 10.495-5.142 10.496 5.142 9.139-4.479-.254-1.45-8.885-4.355 7.737-3.789-.312-2.547-1.28-9.404s-1.471 3.13-3.101 4.23c-1.073.724-2.916.983-2.916.983s-1.447-7.717-2.97-11.733c-2.72-7.169-10.195-12.37-10.195-12.37zm13.037 44.914-10.496 5.143 9.635 4.72 3.805-1.398 4.26-4.933z" transform="translate(0 -268.3)"/><path style="fill:#ff9231;fill-rule:evenodd" d="M30.466 270.3s3.677 9.767 2.798 13.255c-1.115 4.423-4.037 8.105-7.629 8.842-.943.194-2.82-.621-4.207-1.503-2.23-1.298-2.799-3.817-3.406-6.197 0 0-.744 4.052-.402 7.189.343 3.136 2.067 7.733 1.958 10.142-.119 2.606-1.19 5.462-1.19 5.462s-1.693-3.042-2.766-5.073c-1.073-2.03-3.908-4.77-3.908-4.77s1.895 3.36 1.949 6.499c.054 3.14-5.428 9.779.33 18.41 5.82 8.725 14.533 7.708 14.533 7.708l2.12-.78-8.134-3.985 10.495-5.142-10.495-5.143 10.495-5.142 10.496 5.142 9.139-4.48-.254-1.45-8.885-4.354 7.737-3.789-.312-2.547-1.28-9.405s-1.471 3.132-3.101 4.231c-1.073.724-2.916.983-2.916.983s-1.447-7.717-2.97-11.733c-2.72-7.169-10.195-12.37-10.195-12.37zm13.037 44.914-10.496 5.143 9.635 4.72 3.805-1.398 4.26-4.933z" transform="translate(0 -268.3)"/><path style="fill:#fff;fill-rule:evenodd;opacity:.2" d="M30.467 2s.224.616.486 1.371c1.24.91 7.26 5.55 9.707 12 1.523 4.015 2.97 11.733 2.97 11.733s1.844-.26 2.917-.983c1.63-1.1 3.101-4.232 3.101-4.232l1.28 9.406.197 1.603.115-.056-.312-2.547-1.28-9.406s-1.47 3.132-3.101 4.232c-1.073.724-2.916.983-2.916.983s-1.448-7.718-2.97-11.733C37.94 7.202 30.466 2 30.466 2zm2.912 12.43c-.02.3-.054.58-.115.824-1.115 4.424-4.038 8.106-7.63 8.844-.943.193-2.82-.623-4.206-1.504-2.23-1.298-2.8-3.817-3.407-6.198 0 0-.532 2.935-.482 5.743.065-2.463.482-4.743.482-4.743.608 2.38 1.178 4.9 3.407 6.198 1.386.881 3.263 1.697 4.207 1.504 3.591-.738 6.514-4.42 7.629-8.844.124-.494.15-1.123.115-1.824zM11.713 29.348s.43.786.883 1.91c.923.97 2.324 2.533 3.025 3.86a337.508 337.508 0 0 0 2.766 5.071s1.073-2.855 1.191-5.46c.01-.209-.011-.453-.027-.692-.183 2.518-1.164 5.152-1.164 5.152s-1.693-3.041-2.766-5.072c-1.073-2.03-3.908-4.77-3.908-4.77zm1.908 7.01c-.289 2.166-2.36 5.65-2.246 10.093.2-4.32 2.32-7.645 2.287-9.605-.003-.163-.029-.325-.04-.489zm30.904.77-1.021.5 8.883 4.356.093.532.163-.08-.256-1.452-7.862-3.855zM23.533 47.415l-1.021.5 9.474 4.643 1.022-.5-9.475-4.643zm9.475 4.643 1.02.5 9.476-4.643-1.022-.5-9.474 4.643zm10.496-4.143 6.596 3.234.607-.703-6.184-3.03-1.02.5zM23.534 57.7l-1.022.5 6.968 3.412 1.166-.427-7.113-3.485z"/></svg>
